X: 37748
T: Solstice, The
R: reel
M: 4/4
K: Dmajor
D3E FDEF|DEFA, B,DB,A,|D3E FABA|dBAd BAFE|
D3E FDEF|DEFA, B,DB,A,|DdBA edfe|aAgB Add2:|
defa edfe|defa baa2|defa edfe|d=cAd =cAA2|defa edfe|
defa baa2|1 defa bafe|aAgB Add2:|2 faef deBd|AFED A,DD2||

